images/icons/qfield-logo.svg

<?xml version="1.0" encoding="UTF-8" standalone="no"?>
<!-- Created with Inkscape (http://www.inkscape.org/) -->

<svg
   xmlns:dc="http://purl.org/dc/elements/1.1/"
   xmlns:cc="http://creativecommons.org/ns#"
   xmlns:rdf="http://www.w3.org/1999/02/22-rdf-syntax-ns#"
   xmlns:svg="http://www.w3.org/2000/svg"
   xmlns="http://www.w3.org/2000/svg"
   xmlns:sodipodi="http://sodipodi.sourceforge.net/DTD/sodipodi-0.dtd"
   xmlns:inkscape="http://www.inkscape.org/namespaces/inkscape"
   width="33.866665mm"
   height="33.866665mm"
   viewBox="0 0 128 128"
   id="svg4136"
   version="1.1"
   inkscape:version="0.92.4 (5da689c313, 2019-01-14)"
   sodipodi:docname="qfield-logo.svg">
  <defs
     id="defs4138" />
  <sodipodi:namedview
     id="base"
     pagecolor="#ffffff"
     bordercolor="#666666"
     borderopacity="1.0"
     inkscape:pageopacity="0.0"
     inkscape:pageshadow="2"
     inkscape:zoom="1.4142136"
     inkscape:cx="-23.345293"
     inkscape:cy="-10.65981"
     inkscape:document-units="mm"
     inkscape:current-layer="layer1"
     showgrid="false"
     units="mm"
     inkscape:window-width="1866"
     inkscape:window-height="1016"
     inkscape:window-x="54"
     inkscape:window-y="27"
     inkscape:window-maximized="1">
    <inkscape:grid
       type="xygrid"
       id="grid4684" />
  </sodipodi:namedview>
  <metadata
     id="metadata4141">
    <rdf:RDF>
      <cc:Work
         rdf:about="">
        <dc:format>image/svg+xml</dc:format>
        <dc:type
           rdf:resource="http://purl.org/dc/dcmitype/StillImage" />
        <dc:title />
      </cc:Work>
    </rdf:RDF>
  </metadata>
  <g
     inkscape:label="Layer 1"
     inkscape:groupmode="layer"
     id="layer1"
     transform="translate(0,-924.36216)">
    <path
       style="color:#000000;clip-rule:nonzero;display:inline;overflow:visible;visibility:visible;opacity:1;isolation:auto;mix-blend-mode:normal;color-interpolation:sRGB;color-interpolation-filters:linearRGB;solid-color:#000000;solid-opacity:1;fill:#80cc28;fill-opacity:1;fill-rule:nonzero;stroke:#ffffff;stroke-width:4;stroke-linecap:butt;stroke-linejoin:miter;stroke-miterlimit:4;stroke-dasharray:none;stroke-dashoffset:0;stroke-opacity:1;color-rendering:auto;image-rendering:auto;shape-rendering:auto;text-rendering:auto;enable-background:accumulate"
       d="M 64,4 A 60,60 0 0 0 4,64 60,60 0 0 0 64,124 60,60 0 0 0 97.957031,113.44141 l -24.484375,-6.5293 a 44,44 0 0 1 -1.99414,0.44727 44,44 0 0 1 -4.365235,0.53124 A 44,44 0 0 1 64,108 a 44,44 0 0 1 -4.392578,-0.2207 44,44 0 0 1 -4.34961,-0.65625 44,44 0 0 1 -4.259765,-1.08789 44,44 0 0 1 -4.132813,-1.50782 44,44 0 0 1 -3.958984,-1.91406 44,44 0 0 1 -3.75,-2.29883 44,44 0 0 1 -3.501953,-2.662106 44,44 0 0 1 -3.21875,-2.998047 44,44 0 0 1 -2.902344,-3.302735 44,44 0 0 1 -2.558594,-3.578124 44,44 0 0 1 -2.1875,-3.814454 44,44 0 0 1 -1.796875,-4.015625 44,44 0 0 1 -1.386718,-4.173828 44,44 0 0 1 -0.962891,-4.291015 44,44 0 0 1 -0.53125,-4.365235 A 44,44 0 0 1 20,64 a 44,44 0 0 1 0.220703,-4.392578 44,44 0 0 1 0.65625,-4.34961 44,44 0 0 1 1.087891,-4.259765 44,44 0 0 1 1.507812,-4.132813 44,44 0 0 1 1.914063,-3.958984 44,44 0 0 1 2.298828,-3.75 44,44 0 0 1 2.662109,-3.501953 44,44 0 0 1 2.998047,-3.21875 44,44 0 0 1 3.302735,-2.902344 44,44 0 0 1 3.578124,-2.558594 44,44 0 0 1 3.814454,-2.1875 44,44 0 0 1 4.015625,-1.796875 44,44 0 0 1 4.173828,-1.386718 44,44 0 0 1 4.291015,-0.962891 44,44 0 0 1 4.365235,-0.53125 A 44,44 0 0 1 64,20 a 44,44 0 0 1 4.392578,0.220703 44,44 0 0 1 4.34961,0.65625 44,44 0 0 1 4.259765,1.087891 44,44 0 0 1 4.132813,1.507812 44,44 0 0 1 3.958984,1.914063 44,44 0 0 1 3.75,2.298828 44,44 0 0 1 3.501953,2.662109 44,44 0 0 1 3.21875,2.998047 44,44 0 0 1 2.902344,3.302735 44,44 0 0 1 2.558593,3.578124 44,44 0 0 1 2.1875,3.814454 44,44 0 0 1 1.79688,4.015625 44,44 0 0 1 1.38671,4.173828 44,44 0 0 1 0.9629,4.291015 44,44 0 0 1 0.53124,4.365235 A 44,44 0 0 1 108,64 a 44,44 0 0 1 -0.2207,4.392578 44,44 0 0 1 -0.65625,4.34961 44,44 0 0 1 -0.14844,0.578124 l 6.52734,24.472657 A 60,60 0 0 0 124,64 60,60 0 0 0 64,4 Z"
       id="path4709"
       inkscape:connector-curvature="0"
       transform="translate(0,924.36216)" />
    <path
       style="color:#000000;clip-rule:nonzero;display:inline;overflow:visible;visibility:visible;opacity:1;isolation:auto;mix-blend-mode:normal;color-interpolation:sRGB;color-interpolation-filters:linearRGB;solid-color:#000000;solid-opacity:1;fill:#80cc28;fill-opacity:1;fill-rule:nonzero;stroke:#ffffff;stroke-width:4;stroke-linecap:butt;stroke-linejoin:miter;stroke-miterlimit:4;stroke-dasharray:none;stroke-dashoffset:0;stroke-opacity:1;color-rendering:auto;image-rendering:auto;shape-rendering:auto;text-rendering:auto;enable-background:accumulate"
       d="m 87.99112,976.2721 22,58 -56.000001,-22 z"
       id="rect4714"
       inkscape:connector-curvature="0"
       sodipodi:nodetypes="cccc" />
  </g>
</svg>

<?xml version="1.0" encoding="UTF-8" standalone="no"?>
<!-- Created with Inkscape (http://www.inkscape.org/) -->

<svg
   xmlns:dc="http://purl.org/dc/elements/1.1/"
   xmlns:cc="http://creativecommons.org/ns#"
   xmlns:rdf="http://www.w3.org/1999/02/22-rdf-syntax-ns#"
   xmlns:svg="http://www.w3.org/2000/svg"
   xmlns="http://www.w3.org/2000/svg"
   xmlns:sodipodi="http://sodipodi.sourceforge.net/DTD/sodipodi-0.dtd"
   xmlns:inkscape="http://www.inkscape.org/namespaces/inkscape"
   width="128"
   height="128"
   viewBox="0 0 128 128"
   id="svg4136"
   version="1.1"
   inkscape:version="0.91 r13725"
   sodipodi:docname="qfield-logo.svg">
  <defs
     id="defs4138" />
  <sodipodi:namedview
     id="base"
     pagecolor="#ffffff"
     bordercolor="#666666"
     borderopacity="1.0"
     inkscape:pageopacity="0.0"
     inkscape:pageshadow="2"
     inkscape:zoom="2.8284271"
     inkscape:cx="81.500407"
     inkscape:cy="80.407342"
     inkscape:document-units="px"
     inkscape:current-layer="layer1"
     showgrid="false"
     units="px"
     inkscape:window-width="1920"
     inkscape:window-height="1016"
     inkscape:window-x="0"
     inkscape:window-y="27"
     inkscape:window-maximized="1">
    <inkscape:grid
       type="xygrid"
       id="grid4684" />
  </sodipodi:namedview>
  <metadata
     id="metadata4141">
    <rdf:RDF>
      <cc:Work
         rdf:about="">
        <dc:format>image/svg+xml</dc:format>
        <dc:type
           rdf:resource="http://purl.org/dc/dcmitype/StillImage" />
        <dc:title></dc:title>
      </cc:Work>
    </rdf:RDF>
  </metadata>
  <g
     inkscape:label="Layer 1"
     inkscape:groupmode="layer"
     id="layer1"
     transform="translate(0,-924.36216)">
    <path
       style="color:#000000;clip-rule:nonzero;display:inline;overflow:visible;visibility:visible;opacity:1;isolation:auto;mix-blend-mode:normal;color-interpolation:sRGB;color-interpolation-filters:linearRGB;solid-color:#000000;solid-opacity:1;fill:#80cc28;fill-opacity:1;fill-rule:nonzero;stroke:#ffffff;stroke-width:4;stroke-linecap:butt;stroke-linejoin:miter;stroke-miterlimit:4;stroke-dasharray:none;stroke-dashoffset:0;stroke-opacity:1;color-rendering:auto;image-rendering:auto;shape-rendering:auto;text-rendering:auto;enable-background:accumulate"
       d="M 64 4 A 60 60 0 0 0 4 64 A 60 60 0 0 0 64 124 A 60 60 0 0 0 97.957031 113.44141 L 73.472656 106.91211 A 44 44 0 0 1 71.478516 107.35938 A 44 44 0 0 1 67.113281 107.89062 A 44 44 0 0 1 64 108 A 44 44 0 0 1 59.607422 107.7793 A 44 44 0 0 1 55.257812 107.12305 A 44 44 0 0 1 50.998047 106.03516 A 44 44 0 0 1 46.865234 104.52734 A 44 44 0 0 1 42.90625 102.61328 A 44 44 0 0 1 39.15625 100.31445 A 44 44 0 0 1 35.654297 97.652344 A 44 44 0 0 1 32.435547 94.654297 A 44 44 0 0 1 29.533203 91.351562 A 44 44 0 0 1 26.974609 87.773438 A 44 44 0 0 1 24.787109 83.958984 A 44 44 0 0 1 22.990234 79.943359 A 44 44 0 0 1 21.603516 75.769531 A 44 44 0 0 1 20.640625 71.478516 A 44 44 0 0 1 20.109375 67.113281 A 44 44 0 0 1 20 64 A 44 44 0 0 1 20.220703 59.607422 A 44 44 0 0 1 20.876953 55.257812 A 44 44 0 0 1 21.964844 50.998047 A 44 44 0 0 1 23.472656 46.865234 A 44 44 0 0 1 25.386719 42.90625 A 44 44 0 0 1 27.685547 39.15625 A 44 44 0 0 1 30.347656 35.654297 A 44 44 0 0 1 33.345703 32.435547 A 44 44 0 0 1 36.648438 29.533203 A 44 44 0 0 1 40.226562 26.974609 A 44 44 0 0 1 44.041016 24.787109 A 44 44 0 0 1 48.056641 22.990234 A 44 44 0 0 1 52.230469 21.603516 A 44 44 0 0 1 56.521484 20.640625 A 44 44 0 0 1 60.886719 20.109375 A 44 44 0 0 1 64 20 A 44 44 0 0 1 68.392578 20.220703 A 44 44 0 0 1 72.742188 20.876953 A 44 44 0 0 1 77.001953 21.964844 A 44 44 0 0 1 81.134766 23.472656 A 44 44 0 0 1 85.09375 25.386719 A 44 44 0 0 1 88.84375 27.685547 A 44 44 0 0 1 92.345703 30.347656 A 44 44 0 0 1 95.564453 33.345703 A 44 44 0 0 1 98.466797 36.648438 A 44 44 0 0 1 101.02539 40.226562 A 44 44 0 0 1 103.21289 44.041016 A 44 44 0 0 1 105.00977 48.056641 A 44 44 0 0 1 106.39648 52.230469 A 44 44 0 0 1 107.35938 56.521484 A 44 44 0 0 1 107.89062 60.886719 A 44 44 0 0 1 108 64 A 44 44 0 0 1 107.7793 68.392578 A 44 44 0 0 1 107.12305 72.742188 A 44 44 0 0 1 106.97461 73.320312 L 113.50195 97.792969 A 60 60 0 0 0 124 64 A 60 60 0 0 0 64 4 z "
       transform="translate(0,924.36216)"
       id="path4709" />
    <path
       style="color:#000000;clip-rule:nonzero;display:inline;overflow:visible;visibility:visible;opacity:1;isolation:auto;mix-blend-mode:normal;color-interpolation:sRGB;color-interpolation-filters:linearRGB;solid-color:#000000;solid-opacity:1;fill:#80cc28;fill-opacity:1;fill-rule:nonzero;stroke:#ffffff;stroke-width:4;stroke-linecap:butt;stroke-linejoin:miter;stroke-miterlimit:4;stroke-dasharray:none;stroke-dashoffset:0;stroke-opacity:1;color-rendering:auto;image-rendering:auto;shape-rendering:auto;text-rendering:auto;enable-background:accumulate"
       d="m 87.99112,976.2721 22,58 -56.000001,-22 z"
       id="rect4714"
       inkscape:connector-curvature="0"
       sodipodi:nodetypes="cccc" />
  </g>
</svg>
